X: 20263
Q: "Briskly."
M: 6/8
L: 1/8
K: Bb
(d/e/) |\
f>ed e>fg | f3- f2e | d>BG F>DF | GB2 z(de) |\
f>ed e>fg | f2z z2e | d>ef ecA | B3- B2G |
b>ag fed | (eg3) Hzg | f>gf e>cA | B3 zde |
fgf fdB | b3- bag | fgf fdB | e3 z2c |\
def fg_a | g3- gHga | bfd e<cA | B3- B2 |]


